brandFactory_export/2.Regular/Tienda _2Regular.svg

<?xml version="1.0" encoding="UTF-8"?>
<svg width="24px" height="24px" viewBox="0 0 24 24" version="1.1" xmlns="http://www.w3.org/2000/svg" xmlns:xlink="http://www.w3.org/1999/xlink">
    <title>2.Regular/Tienda _2Regular</title>
    <g id="Symbols" stroke="none" stroke-width="1" fill="none" fill-rule="evenodd">
        <g id="2.Regular/Tienda-_2Regular" fill="#5CB615" fill-rule="nonzero">
            <path d="M20.7327731,21.6605042 L20.7327731,13.1092437 C20.4403361,13.1596639 20.1478992,13.1865546 19.8521008,13.189916 C18.8302521,13.189916 17.8722689,12.897479 17.1764706,12.389916 C16.4773109,12.897479 15.5193277,13.189916 14.5008403,13.189916 C13.4789916,13.189916 12.5210084,12.897479 11.8252101,12.389916 C11.1260504,12.897479 10.1680672,13.189916 9.14957983,13.189916 C8.1210084,13.189916 7.15966387,12.8941176 6.4605042,12.3764706 C5.76134454,12.8907563 4.8,13.189916 3.77142857,13.189916 C3.46554622,13.189916 3.17310924,13.1563025 2.8907563,13.1092437 L2.8907563,21.6571429 C2.8907563,21.9428571 3.14957983,22.1748255 3.46890756,22.1748255 L8.50756303,22.1748255 L8.50756303,16.5445378 C8.50756303,15.7243697 9.19327731,15.0554622 10.0403361,15.0554622 L13.6067227,15.0554622 C14.4537815,15.0554622 15.1394958,15.7243697 15.1394958,16.5445378 L15.1394958,22.1748255 L20.1478992,22.1748255 C20.4739496,22.1781513 20.7327731,21.9428571 20.7327731,21.6605042 L20.7327731,21.6605042 Z M13.697479,22.1781513 L13.697479,16.5445378 C13.697479,16.5378151 13.6705882,16.5008403 13.610084,16.5008403 L10.0436975,16.5008403 C9.98319328,16.5008403 9.95630026,16.5378151 9.95630026,16.5445378 L9.95630026,22.1747899 C9.95294118,22.1781513 13.697479,22.1781513 13.697479,22.1781513 L13.697479,22.1781513 Z M1.66386555,9.9394958 C1.51932773,10.1680672 1.4487395,10.2857143 1.4487395,10.4302521 C1.4487395,11.0487395 2.40336134,11.7411765 3.77478992,11.7411765 C4.64201681,11.7411765 5.43865546,11.4521008 5.85546218,10.9882353 C5.85546218,10.9882353 6.08067227,10.8201681 6.1512605,10.7764706 C6.26554622,10.7092437 6.47058824,10.712605 6.47058824,10.712605 C6.70588235,10.7159664 6.92773109,10.8168067 7.08235294,10.9915966 C7.49243697,11.4487395 8.28907563,11.7378151 9.15630252,11.7378151 C10.0168067,11.7378151 10.810084,11.4521008 11.2302521,10.994958 C11.2302521,10.994958 11.405042,10.8201681 11.5193277,10.7630252 C11.6235294,10.712605 11.8285714,10.7294118 11.8285714,10.7294118 C12.0403361,10.7697479 12.2789916,10.8235294 12.4336134,10.9915966 C12.8571429,11.4554622 13.6504202,11.7411765 14.5109244,11.7411765 C15.3680672,11.7411765 16.1714286,11.4420168 16.5848739,11.005042 C16.5848739,11.005042 16.789916,10.8336134 16.8705882,10.7831933 C16.9781513,10.7159664 17.1865546,10.7327731 17.1865546,10.7327731 C17.4151261,10.7327731 17.6369748,10.8302521 17.7915966,10.9983193 C18.2084034,11.4554622 19.0016807,11.7411765 19.8621849,11.7411765 C21.2336134,11.7411765 22.1882353,11.0487395 22.1882353,10.4268908 C22.1882353,10.1714286 22.0336134,9.95966387 21.902521,9.82521008 L21.8991597,9.82184874 C21.6436975,9.55630252 21.4521008,9.01176471 20.8705882,6.89747899 C20.7663866,6.52773109 20.6823529,6.21176471 20.6252101,6.03361345 L19.1697479,1.44537815 L4.45378151,1.48907563 C4.25210084,2.12436975 3.9697479,3.04201681 3.66386555,4.02689076 C2.71596639,7.0789916 2.08739496,9.10588235 1.95630252,9.40840336 C1.87226891,9.6 1.76806723,9.77142857 1.66386555,9.9394958 L1.66386555,9.9394958 Z M23.6235294,10.4336134 C23.6235294,11.3277311 23.0554622,12.1042017 22.1781513,12.605042 L22.1781513,21.6605042 C22.1781513,22.7428571 21.2705882,23.6235294 20.1546218,23.6235294 L3.46890756,23.6235294 C2.35294118,23.6235294 1.44537815,22.7428571 1.44537815,21.6605042 L1.44537815,12.605042 C0.568067227,12.1008403 0,11.3277311 0,10.4302521 C0,9.85882353 0.255462185,9.45882353 0.440336134,9.16302521 C0.507563025,9.05882353 0.574789916,8.95462185 0.628571429,8.83361345 C0.749579832,8.54453782 1.63697479,5.68403361 2.28235294,3.59327731 C2.60504202,2.5512605 2.90420168,1.58655462 3.1092437,0.934453782 C3.28739496,0.396638655 3.78151261,0.0403361345 4.34285714,0.0403361345 L19.2705882,0 L19.2739496,0 C19.8420168,0 20.3394958,0.359663866 20.5142857,0.900840336 L21.9966387,5.60672269 C22.0571429,5.79159664 22.1478992,6.12773109 22.2554622,6.5210084 C22.4403361,7.18655462 22.8134454,8.54789916 22.9747899,8.87058824 C23.3983193,9.32773109 23.6235294,9.86554622 23.6235294,10.4336134 Z" id="Tienda-_2Regular"></path>
        </g>
    </g>
</svg>

<svg width="24" height="24" viewBox="0 0 24 24" xmlns="http://www.w3.org/2000/svg"><path d="M20.733 21.66v-8.55c-.293.05-.585.077-.88.08-1.023 0-1.98-.293-2.677-.8-.699.507-1.657.8-2.675.8-1.022 0-1.98-.293-2.676-.8-.699.507-1.657.8-2.675.8-1.029 0-1.99-.296-2.69-.814-.699.515-1.66.814-2.689.814-.305 0-.598-.034-.88-.08v8.547c0 .286.259.518.578.518h5.039v-5.63c0-.82.685-1.49 1.532-1.49h3.567c.847 0 1.532.67 1.532 1.49v5.63h5.009c.326.003.585-.232.585-.514zm-7.036.518v-5.633c0-.007-.026-.044-.087-.044h-3.566c-.06 0-.088.037-.088.044v5.63c-.003.003 3.741.003 3.741.003zM1.664 9.94c-.145.23-.215.347-.215.491 0 .619.954 1.311 2.326 1.311.867 0 1.664-.289 2.08-.753 0 0 .226-.168.296-.212.115-.067.32-.063.32-.063a.831.831 0 01.611.279c.41.457 1.207.746 2.074.746.86 0 1.654-.286 2.074-.743 0 0 .175-.175.29-.232.104-.05.309-.034.309-.034.211.04.45.095.605.263.423.463 1.216.75 2.077.75.857 0 1.66-.3 2.074-.737 0 0 .205-.171.286-.222.107-.067.316-.05.316-.05.228 0 .45.097.605.265.416.457 1.21.743 2.07.743 1.372 0 2.326-.692 2.326-1.314 0-.256-.154-.467-.285-.602l-.004-.003c-.255-.266-.447-.81-1.028-2.925-.105-.37-.189-.685-.246-.863L19.17 1.445 4.454 1.49c-.202.635-.484 1.553-.79 2.538-.948 3.052-1.577 5.079-1.708 5.381a4.227 4.227 0 01-.292.531zm21.96.495c0 .894-.569 1.67-1.446 2.171v9.056c0 1.082-.907 1.963-2.023 1.963H3.469c-1.116 0-2.024-.881-2.024-1.963v-9.056C.568 12.101 0 11.328 0 10.43c0-.571.255-.971.44-1.267.068-.104.135-.208.189-.33.12-.288 1.008-3.149 1.653-5.24.323-1.042.622-2.006.827-2.659A1.296 1.296 0 014.343.04L19.27 0h.003c.568 0 1.065.36 1.24.9l1.483 4.707c.06.185.15.52.258.914.185.666.558 2.027.72 2.35.423.457.649.995.649 1.563z" fill="#5CB615" fill-rule="nonzero"/></svg>
